!!!COM: Scarlatti, Domenico
!!!CDT: 1685///-1757///
!!!OTL: Sonata in D Major, L.334, K.122
!!!SCT: K. 122
!!!SCT: L. 334
**kern	**kern	**dynam
*staff2	*staff1	*staff1/2
*Icemba	*Icemba	*Icemba
*>[A,A,B,B]	*>[A,A,B,B]	*>[A,A,B,B]
*>norep[A,B]	*>norep[A,B]	*>norep[A,B]
*>A	*>A	*>A
*clefG2	*clefG2	*clefG2
*k[f#c#]	*k[f#c#]	*k[f#c#]
*D:	*D:	*D:
*M3/8	*M3/8	*M3/8
*MM120	*MM120	*MM120
=1-	=1-	=1-
8d'/ 8f#'/L	(32ff#\LLL	f
.	32gg\J	>
.	16aa\JJ)	.
8e'/ 8g'/	8gg'\L	p
8f#'/ 8a'/J	8ff#'\J	.
=2	=2	=2
8g'/ 8b'/	8ee'\L	.
8r	8dd'\	.
8r	8cc#'\J	.
=3	=3	=3
8d'/ 8f#'/L	(32ff#\LLL	f
.	32gg\J	>
.	16aa\JJ)	.
8e'/ 8g'/	8gg'\L	p
8f#'/ 8a'/J	8ff#'\J	.
=4	=4	=4
8g'/	8b'\L	.
8r	8cc#'\	.
8r	8dd'\J	.
=5	=5	=5
8d'/ 8f#'/L	(32ff#\LLL	f
.	32gg\J	.
.	16aa\JJ)	.
8e'/ 8g'/	8gg'\L	p
8f#'/ 8a'/J	8ff#'\J	.
=6	=6	=6
4g/ 4b/	(8aa#\L	f
.	8bb\)	.
8f#'/ 8a'/	([8aan\J	.
=7	=7	=7
4e/ 4g/ 4cc#/	8aa\L]	.
.	8gg\)	.
8f#'/ 8a'/ 8dd'/	8ff#'\J	.
=8	=8	=8
8A/ 8a/	(8ee\L	.
8r	8dd\)	.
8r	8ee'\J	.
=9	=9	=9
8d'/ 8f#'/L	(32ff#\LLL	p
.	32gg\J	.
.	16aa\JJ)	.
8e'/ 8g'/	8gg'\L	.
8f#'/ 8a'/J	8ff#'\J	.
=10	=10	=10
4g/ 4b/	(8aa#\L	.
.	8bb\)	.
8f#'/ 8a'/	([8aan\J	.
=11	=11	=11
4e/ 4g/ 4cc#/	8aa\L]	.
.	8gg\)	.
8f#'/ 8a'/ 8dd'/	8ff#'\J	.
*clefF4	*	*
=12	=12	=12
*met(C)	*met(C)	*met(C)
*M4/4	*M4/4	*M4/4
*MM120	*MM120	*MM120
4AA\ 4E\ 4A\	8.cc#\ (8.ee\L	mf
.	16dd\ 16ff#\Jk	.
4AA\ 4E\ 4A\	8.cc#\ 8.ee\L	.
.	16dd\ 16ff#\Jk	.
4AA\ 4E\ 4A\	8.cc#\ 8.ee\L	.
.	16dd\ 16aa\Jk	.
4AA\ 4E\ 4A\	8.cc#\ 8.ee\L	.
.	16dd\ 16ff#\Jk	.
=13	=13	=13
4AA\ 4E\ 4A\	8.cc#\ 8.ee\L	.
.	16dd\ 16aa\Jk	.
4AA\ 4E\ 4A\	8.cc#\ 8.ee\L	.
.	16dd\ 16ff#\Jk	.
2AA;\ 2E;\ 2A;\	2cc#\ 2ee\)	>
=14	=14	=14
*M3/8	*M3/8	*M3/8
*MM120	*MM120	*MM120
*clefG2	*	*
8a'\ 8ccn'\L	(32ee\LLL	p
.	32ffn\J	.
.	16gg\JJ)	.
8a'\ 8cc'\	8ff'\L	.
8a'\ 8cc'\J	8ee'\J	.
=15	=15	=15
8fn'/ 8a'/ 8dd'/L	(8ddd\L	>
8f'/ 8a'/ 8dd'/	8gg#\)	.
8f'/ 8a'/ 8dd'/J	8aa'\J	.
=16	=16	=16
8fn'/ 8a'/ 8dd'/L	(32ee\LLL	.
.	32ffn\J	.
.	16gg\JJ)	.
8f'/ 8a'/ 8dd'/	8ff'\L	.
8f'/ 8a'/ 8dd'/J	8ee'\J	.
=17	=17	=17
8e'/ 8a'/ 8ccn'/L	(8cccn\L	>
8e'/ 8a'/ 8cc'/	8gg#\)	.
8e'/ 8a'/ 8cc'/J	8aa'\J	.
=18	=18	=18
8e'/ 8a'/ 8ccn'/L	(32ee\LLL	.
.	32ffn\J	.
.	16gg\JJ)	.
8e'/ 8a'/ 8cc'/	8ff'\L	.
8e'/ 8a'/ 8cc'/J	8ee'\J	.
=19	=19	=19
8d'/ 8a'/ 8b'/L	(8ddd\L	>
8d'/ 8a'/ 8b'/	8gg#\)	.
8d'/ 8a'/ 8b'/J	8aa'\J	.
=20	=20	=20
8d'/ 8a'/ 8b'/L	(32ee\LLL	.
.	32ffn\J	.
.	16gg\JJ)	.
8d'/ 8a'/ 8b'/	8ff'\L	.
8d'/ 8a'/ 8b'/J	8ee'\J	.
=21	=21	=21
8cn'/ 8e'/ 8a'/L	(8cccn\L	>
8c'/ 8e'/ 8a'/	8gg#\)	.
8c'/ 8e'/ 8a'/J	8aa'\J	.
=22	=22	=22
4A/	(32ffn\LLL	mf
.	32gg\J	.
.	16aa\JJ)	.
.	8gg'\L	.
([8a/	8ff'\J	.
=23	=23	=23
8a/L]	(8dd#\L	.
8g#/)	8ddn\ 8ee\)	.
8a'/J	8ccn'\ 8ee'\J	.
=24	=24	=24
*^	*	*
4.fn/	4d\	(8b-/ 8dd/L	.
.	.	8a/)	.
.	8d'\	8g#'/J	.
*v	*v	*	*
=25	=25	=25
(8c#/ 8e/L	(8a/L	>
8B/) 8d/	8g#/)	.
8A'/ 8c#'/J	8a'/J	.
=26	=26	=26
4A/	(32ffn\LLL	p
.	32gg\J	.
.	16aa\JJ)	.
.	8ff'\L	.
([8a/	8ee'\J	.
=27	=27	=27
8a/L]	(8dd#\L	.
8g#/)	8ddn\ 8ee\)	.
8a'/J	8ccn'\ 8ee'\J	.
=28	=28	=28
4d/ 4fn/	(8b-/ 8dd/L	.
.	8a/)	.
8d'/ 8f'/	8g#'/J	.
=29	=29	=29
4cn/ 4e/	(8g#/L	<
.	8a/)	.
*clefF4	*	*
8B'\ 8d'\	8gn'/J	.
=30	=30	=30
4A\ 4cn\	(8fn/L	.
.	8e/)	.
8A'\ 8c'\	8d#'/J	.
=31	=31	=31
4G#\ 4B\	(8d#/L	mf
.	8e/J)	.
8A'\ 8cn'\	(32ccn\LLL	.
.	32dd\J	.
.	16ee\JJ)	.
=32	=32	=32
4B\ 4d\	(8ee\L	.
.	8dd\	.
8cn'\ 8e'\	8ccn\J)	.
=33	=33	=33
4d\ 4fn\	(8ccn\L	.
.	8b\	.
8cn'\ 8e'\	8a\J)	.
=34	=34	=34
4B\ 4d\	(8a/L	.
.	8g#/J)	.
.	(aq/	.
8cn'\ 8e'\	(16a/LL)	.
.	32g#/L	.
.	32a/JJJ)	.
=35	=35	=35
4G#\ 4B\ 4e\	(8a\L	.
.	8b\J)	.
8A'\ 8cn'\ 8e'\	(32ccn\LLL	p
.	32dd\J	.
.	16ee\JJ)	.
=36	=36	=36
4B\ 4d\ 4e\	(8ee\L	<
.	8dd\	.
8cn'\ 8e'\	8ccn\J)	.
=37	=37	=37
*^	*	*
8r	(4d\	(8ccn\L	.
8fn/L	.	8b\	.
8e/J	8cn\)	8a\J)	.
*v	*v	*	*
=38	=38	=38
8G#'\ 8d'\ 8e'\L	8dd'\L	.
(8A\	(8ccn\J	.
8AA\J)	32cc\LLL	.
.	32b\J	.
.	16cc'\JJ)	.
=39	=39	=39
8D'\L	(8ccn\L	.
8d\ (8fn\	8b\	.
8cn\ 8e\J)	8a\J)	.
=40	=40	=40
8G#'\ 8d'\ 8e'\	(32b\LLL	.
.	32ccn\J	.
.	16dd\JJ)	.
(8A\L	(8cc\L	.
8AA\J)	32cc\LL	.
.	32b\J	.
.	16cc'\JJ)	.
=41	=41	=41
8EE/	8b'\	f
*clefG2	*	*
(8ee\L	8r	.
8cc#\J)	8ccc#'\	.
*clefF4	*	*
=42	=42	=42
8DD/	(8ff#\L	.
*clefG2	*	*
(8dd\L	8gg#\)	.
8b\J)	8bb'\J	.
*clefF4	*	*
=43	=43	=43
8CC#/	(8ee\L	.
*clefG2	*	*
(8cc#\L	8aa\)	.
8a\J)	8ccc#'\J	.
*clefF4	*	*
=44	=44	=44
8BBB/	(8dd\L	.
*clefG2	*	*
(8b\L	8bb\)	.
8g#\J)	8ddd'\J	.
*clefF4	*	*
=45	=45	=45
8AAA/	(8ccc#\L	.
*clefG2	*	*
(8ee\L	8gg#\)	.
8cc#\J)	8aa'\J	.
*clefF4	*	*
=46	=46	=46
8DD/	(8ff#\L	.
*clefG2	*	*
(8dd\L	8gg#\)	.
8b\J)	8bb'\J	.
*clefF4	*	*
=47	=47	=47
8CC#/	(8ee\L	.
*clefG2	*	*
(8cc#\L	8aa\)	.
8a\J)	8ccc#'\J	.
*clefF4	*	*
=48	=48	=48
8BBB/	(8dd\L	.
*clefG2	*	*
(8b\L	8bb\)	.
8g#\J)	8ddd'\J	.
*clefF4	*	*
=49	=49	=49
8AAA'/L	8ccc#'\L	.
8BBB'/	8gg#'\	.
8CC#'/J	8aa'\J	.
=50	=50	=50
8DD'/ 8D'/L	(32ff#\LLL	.
.	32ee\J	.
.	16dd\JJ)	.
8E'/	8cc#'\L	.
8EE'/J	8b'\J	.
=51	=51	=51
4AA/	8a'/	.
.	8ccc#'\L	p
8A'\	8aa'\J	.
=52	=52	=52
8B'\L	8d'/	<
8G#'\	8bb'\L	.
8E'\J	8gg#'\J	.
=53	=53	=53
4AA/	8c#'/	.
.	8ccc#'\L	.
8A'\	8aa'\J	.
=54	=54	=54
8B'\L	8d'/	.
8G#'\	8bb'\L	.
8E'\J	8gg#'\J	.
=55	=55	=55
(8AA/L	(8A/L	.
8C#/)	8c#/J)	<
8AA'/J	8ccc#'\	.
=56	=56	=56
(8BB/L	(8G#/L	.
8GG#/)	8B/J)	.
8EE'/J	8ddd'\	.
=57	=57	=57
(8AA/L	(8A/L	.
8C#/)	8c#/J)	.
8AA'/J	8ccc#'\	.
=58	=58	=58
(8BB/L	(8G#/L	.
8GG#/)	8B/J)	.
8EE'/J	8ddd'\	.
=59	=59	=59
8AA'/L	(32ccc#\LLL	f
.	32bb\J	.
.	16aa\JJ)	.
8BB'/	8gg#'\L	.
8C#'/J	8aa'\J	.
=60	=60	=60
8D'/L	(32ff#\LLL	.
.	32ee\J	.
.	16dd\JJ)	.
8E'/	8cc#'\L	.
8EE'/J	8b'\J	.
=61	=61	=61
8AA/	8a'/	.
*clefG2	*	*
8a'\L	8r	.
8cc#'\J	8aa'\	p
*clefF4	*	*
=62	=62	=62
8D'\	(8ff#\L	<
*clefG2	*	*
8b'\L	8gg#\)	.
8dd'\J	8bb'\J	.
*clefF4	*	*
=63	=63	=63
8C#'\	(8ee\L	.
*clefG2	*	*
8cc#'\L	8aa\)	.
8ee'\J	8ccc#'\J	.
*clefF4	*	*
=64	=64	=64
8D'\	(8ff#\L	.
*clefG2	*	*
8dd'\L	8bb\)	.
8ff#'\J	8ddd'\J	.
*clefF4	*	*
=65	=65	=65
4EE/	(8gg#\L	.
.	8ee\)	.
8E'\	8ddd'\J	.
=66	=66	=66
8A'\L	(32ccc#\LLL	f
.	32bb\J	.
.	16aa\JJ)	.
8e'\	8aa'\ 8ccc#'\L	.
8E'\J	8gg#'\ 8bb'\J	.
=67	=67	=67
8AA'/	(8aa\L	.
*clefG2	*	*
8a'\L	8ee\)	.
8cc#'\J	8aa'\J	.
*clefF4	*	*
=68	=68	=68
8D'\	(8ff#\L	.
*clefG2	*	*
8b'\L	8gg#\)	.
8dd'\J	8bb'\J	.
*clefF4	*	*
=69	=69	=69
8C#'\	(8ee\L	.
*clefG2	*	*
8cc#'\L	8aa\)	.
8ee'\J	8ccc#'\J	.
*clefF4	*	*
=70	=70	=70
8D'\	(8ff#\L	.
*clefG2	*	*
8dd'\L	8bb\)	.
8ff#'\J	8ddd'\J	.
*clefF4	*	*
=71	=71	=71
4EE/	(8gg#\L	.
.	8ee\)	.
8E'\	8ddd'\J	.
=72	=72	=72
8A'\L	(32ccc#\LLL	.
.	32bb\J	.
.	16aa\JJ)	.
8E'\J	8aa'\ 8ccc#'\L	.
8EE'/	8gg#'\ 8bb'\J	.
=73	=73	=73
4AA/	(8aa\L	.
.	8ggn\ 8bb\)	.
8a'\	([8ffn'\ 8cccn'\J	.
=74	=74	=74
*	*^	*
4g#\	4.bb^/	8ffn\L]	.
.	.	8ee\)	.
8g#'\	.	8dd'\J	.
*	*v	*v	*
=75	=75	=75
8a'\L	(32ccn\LLL	.
.	32b\J	.
.	16cc\JJ)	.
8d'\	8dd'\L	.
8e'\J	8b'\J	.
=76	=76	=76
4A\	8a/L	.
.	8g/ 8b/	.
8A'\	([8fn/ 8ccn/J	.
=77	=77	=77
*	*^	*
4G#\	4.b^/	8fn\L]	.
.	.	8e'\)	.
8G#'\	.	8d\J	.
*	*v	*v	*
=78	=78	=78
8A'\L	(32cn/LLL	.
.	32B/J	.
.	16c/JJ)	.
8D'\	8d'/L	.
8E'\J	8B'/J	.
=79	=79	=79
4AA/	(32c#/LLL	p
.	32A/J	.
.	16c#/JJ)	.
.	8e'/L	.
8C#'/	8a'/J	.
=80	=80	=80
8D'/L	(32dd\LLL	.
.	32cc#\J	.
.	16b\JJ)	.
8E'/	8a'\ 8cc#'\L	.
8EE/J	8g#'\ 8b'\J	.
=81	=81	=81
8AA'\L	(32cc#\LLL	f
.	32a\J	.
.	16cc#\JJ)	.
8A'\	8aa'\L	.
8c#'\J	8a'\J	.
=82	=82	=82
8d'\L	(32dd\LLL	.
.	32cc#\J)	.
.	16b\JJ	.
8e'\	8a'\ 8cc#'\L	.
8E'\J	8g#'\ 8b'\J	.
=83	=83	=83
4.AA/	4.a/	.
=84:|!|:	=84:|!|:	=84:|!|:
*>B	*>B	*>B
4.r	(32ee\LLL	p
.	32ffn\J	.
.	16gg\JJ)	.
.	8ff'\L	.
.	8ee'\J	.
=85	=85	=85
8A'\ 8e'\ 8g'\L	(8bb-\L	.
8A'\ 8e'\ 8g'\	8gg\)	>
8A'\ 8e'\ 8g'\J	8ee'\J	.
=86	=86	=86
8A'\ 8e'\ 8g'\L	8cc#'\L	p
8A'\ 8e'\	8b-'\	.
8A'\ 8e'\J	8g#'\J	.
=87	=87	=87
8A'\ 8d'\ 8fn'\L	(8g#/	.
8A'\ 8d'\ 8f'\	4a/)	.
8A'\ 8d'\ 8f'\J	.	.
=88	=88	=88
8A'\ 8d'\ 8fn'\L	(32dd\LLL	.
.	32ee\J	.
.	16ffn\JJ)	.
8A'\ 8d'\ 8f'\	(8ee'\L	.
8A'\ 8d'\ 8f'\J	8dd'\J)	.
=89	=89	=89
8G'\ 8A'\ 8c#'\ 8e'\L	(8gg\L	f
8G'\ 8A'\ 8c#'\ 8e'\	8ee\)	.
8G'\ 8A'\ 8c#'\ 8e'\J	8cc#'\J	.
=90	=90	=90
8G'\ 8A'\ 8c#'\ 8e'\L	(8b-/L	p
8G'\ 8A'\ 8c#'\	8g/)	.
8G'\ 8A'\ 8c#'\J	8e'/J	.
=91	=91	=91
8Fn'\ 8A'\ 8d'\L	(8e/L	.
8F'\ 8A'\ 8d'\	8fn/)	.
8F'\ 8A'\ 8d'\J	8a'/J	.
=92	=92	=92
8G'\ 8B-'\ 8d'\L	(8fn/L	.
8G\ 8B-\ 8d\	8e/)	<
8G'\ 8A'\ 8c#'\J	8g'/J	.
=93	=93	=93
8Fn'\ 8A'\L	(8e/L	.
8F'\ 8A'\	8d/)	.
8F'\ 8A'\ 8d'\J	8a'/J	.
=94	=94	=94
8G'\ 8B-'\ 8d'\L	(8fn/L	.
8G'\ 8B-'\ 8d'\	8e/)	.
8G'\ 8A'\ 8c#'\J	8g'/J	.
=95	=95	=95
8Fn'\ 8A'\L	(8e/L	.
8F'\ 8A'\	8d/)	.
8F'\ 8A'\ 8d'\J	8dd'/J	.
=96	=96	=96
(8cn\L	(8a/L	mf
8Bn\)	8g#/)	<
[8d\J	8dd'/J	.
=97	=97	=97
8d\L]	(8dd\L	.
8e\	8cc#\)	.
8g'\J	8ee'\J	.
=98	=98	=98
(8fn\L	(8dd\L	.
8e\)	8cc#\J)	.
8d'\J	(32dd\LLL	.
.	32cc#\J	.
.	16dd\JJ)	.
*clefG2	*	*
=99	=99	=99
*^	*	*
(8A/	4.A\	8ee'\L	f
[4a/	.	(8aa\	.
.	.	8bb-\J	.
=100	=100	=100	=100
8a/]	4.B-\	8dd\L	.
[4g/)	.	8cc#\J)	.
.	.	(32dd\LLL	.
.	.	32cc#\J	.
.	.	16dd\JJ)	.
=101	=101	=101	=101
8g/L]	(4.A\	8ee'\L	.
8fn/ [8a/	.	(8aa\	.
8e/ 8a/J_	.	8bb-\J	.
=102	=102	=102	=102
8a/]	4.B-\) 4.d\	8dd\L	.
4g/	.	8cc#\J)	.
.	.	(32dd\LLL	.
.	.	32cc#\J	.
.	.	16dd\JJ)	.
*v	*v	*	*
*clefF4	*	*
=103	=103	=103
8AA'\L	8e'/	.
8E'\	8aa'\L	.
8A'\J	8ccc#'\J	.
=104	=104	=104
8D'\L	8d'/	.
8Fn'\	8aa'\L	.
8A'\J	8ddd'\J	.
=105	=105	=105
8AA'\L	8e'/	.
8E'\	8aa'\L	.
8A'\J	8ccc#'\J	.
=106	=106	=106
8D'\L	8d'/	.
8Fn'\	8aa'\L	.
8A'\J	8ddd'\J	.
=107	=107	=107
8AA\L	8e'/	.
8E'\	8aa'\L	.
8A'\J	8ccc#'\J	.
=108	=108	=108
8D'\L	8d'/	.
8Fn'\	8aa'\L	.
8A'\J	8ddd'\J	.
=109	=109	=109
(8AA\L	(8ccc#\L	.
8E\)	8aa\)	.
8A'\J	8ee'\J	.
=110	=110	=110
(8d\L	(8ffn\L	.
8c#\)	8ee\)	.
8d'\J	8ff'\J	.
=111	=111	=111
8AA'\L	4ee\	.
8a'\	.	.
8f#'\J	8aa'\	p
=112	=112	=112
8GG'\L	(8aa#\L	.
8g'\	8bb\)	.
8e'\J	8gg'\J	.
=113	=113	=113
8FF#'\L	(8gg#\L	.
8f#'\	8aan\)	.
8d'\J	8ff#'\J	.
=114	=114	=114
8EE'\L	(32ff#\LLL	.
.	32ee\J	.
.	16ff#\JJ)	.
8e'\	8gg'\L	.
8c#'\J	8ee'\J	.
=115	=115	=115
8DD'\L	(8ee\L	<
8a'\	8ff#\)	.
8f#'\J	8aa'\J	.
=116	=116	=116
8GG'\L	(8aa#\L	.
8g'\	8bb\)	.
8e'\J	8gg'\J	.
=117	=117	=117
8FF#'\L	(8gg#\L	.
8f#'\	8aa\)	.
8d'\J	8ff#'\J	.
=118	=118	=118
8EE'\L	(32ff#\LLL	.
.	32ee\J	.
.	16ff#\JJ)	.
8e'\	8gg'\L	.
8c#'\J	8ee'\J	.
=119	=119	=119
8DD'\L	(8ff#\L	f
8f#'\	8dd\)	.
8a'\J	8aa'\J	.
=120	=120	=120
4.AAA/	8cc#'\ 8ee'\L	.
.	8dd'\ 8ff#'\	.
.	8ee'\ 8gg'\J	.
=121	=121	=121
*	*^	*
8DD'\L	(8ff#/L	4.dd\	.
8f#'\	8gg/)	.	.
8a'\J	8aa/J	.	.
*	*v	*v	*
=122	=122	=122
4.AAA/	8cc#'\ 8ee'\L	.
.	8dd'\ 8ff#'\	.
.	8ee'\ 8gg'\J	.
=123	=123	=123
8D'\L	(32ff#\LLL	.
.	32ee\J	.
.	16ff#'\)	.
8E'\	(32gg\L	.
.	32ff#\J	.
.	16gg'\J)	.
8F#'\J	8aa'\J	.
=124	=124	=124
(8G\L	8ee\ (8gg\L	.
8A\)	8dd\ 8ff#\)	.
8AA'\J	8cc#'\ 8ee'\J	.
=125	=125	=125
8DD'\L	4dd\	.
8f#'\	.	.
8a'\J	([8aa\	.
=126	=126	=126
4.AAA/	8aa\L]	.
.	8gg\)	.
.	8ee'\J	.
=127	=127	=127
8DD'\L	8ff#'\L	.
8f#'\	8gg'\	.
8a'\J	([8aa\J	.
=128	=128	=128
4.AAA/	8aa\L]	.
.	8gg\)	.
.	8ee'\J	.
=129	=129	=129
8D'\L	(32ff#\LLL	.
.	32ee\J	.
.	16ff#'\J)	.
8E'\	(32gg\LL	.
.	32ff#\J	.
.	16gg'\J)	.
8F#'\J	8aa'\J	.
=130	=130	=130
(8G\L	8ee\ (8gg\L	.
8A\)	8dd\ 8ff#\)	.
8AA'\J	8cc#'\ 8ee'\J	.
=131	=131	=131
4D\	(8dd\L	.
.	8ccn\ 8ee\)	.
8d'\	([8b-'\ 8ffn'\J	.
=132	=132	=132
*	*^	*
4.c#\	4.ee/	8b-\L]	.
.	.	8a'\)	.
.	.	8g'\J	.
*	*v	*v	*
=133	=133	=133
8d'\L	(32fn/LLL	.
.	32e/J	.
.	16f/JJ)	.
8G'\	8g'/L	.
8A'\J	8e'/J	.
*	*clefF4	*clefF4
=134	=134	=134
4D\	(8d\L	p
.	8cn\ 8e\)	.
8D'\	([8B-'\ 8f#'\J	.
=135	=135	=135
*	*^	*
4C#/	4.e/	8B-\L]	.
.	.	8A\)	.
8C#'/	.	8G'\J	.
*	*v	*v	*
=136	=136	=136
8D'/L	(32Fn\LLL	<
.	32E\J	.
.	16F\JJ)	.
8GG'/	8G'\L	.
8AA'/J	8E'\J	.
=137	=137	=137
8D'/L	(32Fn\LLL	.
.	32E\J	.
.	16F\JJ)	.
8GG'/	8G'\L	.
8AA'/J	8E'\J	.
=138	=138	=138
8DD'/L	8D'\L	f
8FF#'/	8F#'\	.
8AA'/J	8A'\J	.
*	*clefG2	*clefG2
=139	=139	=139
8D'\L	8d'/L	.
8F#'\	8f#'/	.
8A'\J	8a'/J	.
=140	=140	=140
8d\L	8dd'\L	.
8f#'\	8ff#'\	.
8a'\J	8aa'\J	.
=141	=141	=141
4DD^/ 4D^/	8r	.
.	8ddd'\L	f
8FF#'/ 8F#'/	8dd'\J	.
=142	=142	=142
8GG'\ 8G'\L	(32gg\LLL	.
.	32ff#\J	.
.	16ee\JJ)	.
8AA'\ 8A'\	8dd'\ 8ff#'\L	.
8AA'\ 8A'\J	8cc#'\ 8ee'\J	.
=143	=143	=143
8DD'/ 8D'/L	4.dd\	.
8FF#'/ 8F#'/	.	.
8AA'/ 8A'/J	.	.
=144	=144	=144
8D'\L	8d'/L	.
8F#'\	8f#'/	.
8A'\J	8a'/J	.
=145	=145	=145
8d'\L	8dd'\L	.
8f#'\	8ff#'\	.
8a'\J	8aa'\J	.
=146	=146	=146
4DD^/ 4D^/	8r	.
.	8ddd'\L	.
8FF#'/ 8F#'/	8dd'\J	.
=147	=147	=147
8GG'\ 8G'\L	(32gg\LLL	.
.	32ff#\J	.
.	16ee\JJ)	.
8AA'\ 8A'\	8dd'\ 8ff#'\L	.
8AA'\ 8A'\J	8cc#'\ 8ee'\J	.
=148	=148	=148
4DD/ 4D/	8dd'\L	.
.	8ddd'\J	.
8F#'\	8d'/	.
=149	=149	=149
8G'\L	(32g/LLL	.
.	32f#/J	.
.	16e/JJ)	.
8A'\	8d'/ 8f#'/L	.
8AA'\J	8c#'/ 8e'/J	.
=150	=150	=150
4.DD^/ 4.D^/	4.d^/	.
==:|!	==:|!	==:|!
*-	*-	*-
!!!ENC: Craig Stuart Sapp
!!!END: 2004/11/03/
